X:178
T:The Balvenie Fishwife
C:Inspired by Balvenie Single Malt
N:TablEdited by David Ogershok
L:1/8
Q:1/4=200
M:4/4
K:C
z2 Dz ED E^F |: "G"^FG GF G2 Bc | "G"dc BA GB AG | "B7"F^F F=F ^F2 B^c | "B7"^de d^c Bd cB | 
"Emin"^DE EB, E2 GA | "Emin"Bc BA GB AG | "G7"EF FB, F2 GA | "G7"Bc BA G4 | "C"ED CD E2 cd | 
"C"ef ed ce dc | "Cmin"^D=D CD ^D2 cd | "Cmin"^df d=d c^d =dc |1 "G"d2 dc Bc d2 | 
"E7"g2 g^f ef g2 | a^f ge fd e^c | "D7"dB cA BG A^F :|2 dB cA BG A^F | G^F GA Bd ga | 
"G"g2 fe dB _B=B | "G"G2 BA GG AB |: "C"cd cA cd cA | "C"cA cd e4 | "Adim"^ce c_B ce cB | 
"Adim"^ce c_B c4 | "G"d/e/d Bc dc B2 | c/d/c AB cd A2 | G2 GA BA Bc |1 d^c de f4 :|2 dd e^f g4 | 


